X:1
T:My Far Away Home
T:E. T. Hildebrand, ca. 1916
T:My Far Away Home
T:Public Domain
T:Public Domain
C:E. T. Hildebrand, ca. 1916
Z:Public Domain
%%score ( 1 2 ) ( 3 4 )
L:1/8
M:3/4
K:Db
V:1 treble 
V:2 treble 
V:3 bass 
V:4 bass 
V:1
 [DF]>[EG] | [FA]3 [FA] [FA]2 | [DF]4 [FA]>[FA] | [GB]3 [GB] [GB]2 | [FA]4 [DF]>[DF] | %5
w: 1.~I am|think- ing to-|night of a|far a- way|home, Where the|
w: 2.~I am|think- ing to-|night of that|heav- en- ly|land, An- d|
w: 3.~I am|think- ing to-|night o- f|those who have|gone T- o|
 [CE]3 [DF] [EG]2 | [DF]2 [CA]3 [EG] | [DF]4 [DF]>[EG] | [FA]3 [FA] [FA]2 | [DF]4 [FA]>[FA] | %10
w: an- gels are|hap- py in|song, And the|streets of pure|gold, which I|
w: those who are|crowned with the|blest; ’Tis the|host of the|Lord, who re-|
w: view that great|ci- ty a-|bove; O- h,|may we at|length, thr- ough|
 [GB]3 [GB] [GB]2 | [Gd]4 [GB]>[GB] | [FA]2 [DF]2 [EG]2 | [DF]2 [CF]3 [CE] | D6 || %15
w: long to be-|hold, Ar- e|trod by the|bright an- gel|throng.|
w: ceived the re-|ward Which is|prom- ised to|all who seek|rest.|
w: Je- sus the|Son, Pa- ss|in- to that|hav- en of|love.|
"^Refrain" [FA]3 [FA] [FA]2 | [DF]6 | [Fd]3!<(! [Ge] [Af]2!<)! | [Fd]4 [GB]2 | [FA]3 [DF] [DF]2 | %20
w: |||||
w: ti- ful home,|land|of the blest,|Whose glor-|ies for- ev-|
w: |||||
 [DF]2 [EG]2 [DF]2 | (E2 A2) ([DF]>[EG]) | [FA]4 [FA]2 | [DF]4 [Fd]>[Ge] | [Af]4 [Af]2 | %25
w: |||||
w: er are bright;|My * soul *|up to|the great white|throne, Where|
w: |||||
 [Bd]4 [GB]2 | [FA]3 [DF] [DF]2 | [DF]2 [A,D]2 [A,E]2 | [A,D]4 |] %29
w: ||||
w: Je- sus|is ev- er|the light. *||
w: ||||
V:2
 x2 | x6 | x6 | x6 | x6 | x6 | x6 | x6 | x6 | x6 | x6 | x6 | x6 | x6 | D6 || x6 | x6 | x6 | x6 | %19
w: |||||||||||||||||||
w: ||||||||||||||Beau-|||||
 x6 | x6 | C4 x2 | x6 | x6 | x6 | x6 | x6 | x6 | x4 |] %29
w: ||||||||||
w: ||goes||||||||
V:3
 [D,A,]>[D,A,] | [D,D]3 [D,D] [D,D]2 | [D,A,]4 [D,D]>[D,D] | [G,D]3 [G,D] [G,D]2 | %4
 [D,D]4 [D,A,]>[D,A,] | [A,,A,]3 [A,,A,] [A,,A,]2 | [A,,A,]2 [A,,A,]3 [A,,A,] | %7
 [D,A,]4 [D,A,]>[D,A,] | [D,D]3 [D,D] [D,D]2 | [D,A,]4 [D,D]>[D,D] | [G,D]3 [G,D] [G,D]2 | %11
 [G,B,]4 [G,D]>[G,D] | A,2 A,2 A,2 | [A,,A,]2 [A,,A,]3 [A,,G,] | [D,F,]6 || [D,D]3 [D,D] [D,D]2 | %16
 [D,A,]6 | [D,D]3 [D,D] [D,D]2 | [D,A,]4 [D,D]2 | [D,D]3 [D,A,] [D,A,]2 | [D,A,]2 [C,A,]2 [D,A,]2 | %21
 [A,,A,]4 [D,A,]2 | [D,D]4 [D,D]2 | [D,A,]4 [D,A,]>[D,A,] | [D,D]4 [F,D]2 | [G,D]4 [G,D]2 | %26
 [A,D]3 A, A,2 | [A,,A,]2 [A,,F,]2 [A,,G,]2 | [D,F,]4 |] %29
V:4
 x2 | x6 | x6 | x6 | x6 | x6 | x6 | x6 | x6 | x6 | x6 | x6 | A,2 A,2 A,2 | x6 | x6 || x6 | x6 | %17
 x6 | x6 | x6 | x6 | x6 | x6 | x6 | x6 | x6 | x3 A, A,2 | x6 | x4 |] %29

